!!!ONB: MCCC : IFC0021_02 : Extracted Monophonic Melody
!!!COM: Chopin, Frédéric
!!!OPR: Etudes
!!!OMV: 2
!!!SCT: Op.10
!!!ODT: 1829///
**kern
*thru
*staff1
*Ipiano
*clefG2
*k[]
*a:
*met(C)
*M4/4
*MM144
=1
16a
16a#
16b
16cc
16cc#
16dd
16dd#
16ee
16ff
16ff#
16gg
16gg#
16aa
16aa#
16bb
16ccc
=2
16ccc#
16ddd
16ddd#
16eee
16fff
16eee
16ddd#
16ddd
16ccc#
16ccc
16bb
16bb-
16aa
16gg#
16bb
16aa
=3
16gg#
16gg
16ff#
16ff
16ee
16dd#
16ff
16ee
16dd#
16dd
16cc#
16cc
16b
16cc
16dd
16cc
=4
16b
16cc
16b
16cc
16b
16cc
16b
16cc
16b
16ee
16dd#
16dd
16cc#
16cc
16b
16b-
=5
16a
16a#
16b
16cc
16cc#
16dd
16dd#
16ee
16ff
16ff#
16gg
16gg#
16aa
16aa#
16bb
16ccc
=6
16ccc#
16ddd
16ddd#
16eee
16fff
16eee
16ddd#
16ddd
16ccc#
16ccc
16bb
16bb-
16aa
16gg#
16bb
16aa
=7
16gg
16gg#
16aa
16aa#
16bb
16ccc
16bb
16aa#
16aa
16gg#
16gg
16ff#
16ee#
16ff#
16gg
16ff#
=8
16ee
16ff
16dd#
16ee
16dd
16ee
16cc#
16dd
16cc
16dd
16b
16cc
16b
16cc
16a#
16b
=9
16a
16a#
16b
16cc
16cc#
16dd
16dd#
16ee
16ff
16ff#
16gg
16gg#
16aa
16aa#
16bb
16ccc
=10
16ccc#
16ddd
16ddd#
16eee
16fff
16eee
16ddd#
16ddd
16ccc#
16ccc
16bb
16bb-
16aa
16gg#
16bb
16aa
=11
16gg#
16gg
16ff#
16ff
16ee
16dd#
16ff
16ee
16dd#
16dd
16cc#
16cc
16b
16cc
16dd
16cc
=12
16b
16cc
16b
16cc
16b
16cc
16b
16cc
16b
16ee
16dd#
16dd
16cc#
16cc
16b
16b-
=13
16a
16a#
16b
16cc
16cc#
16dd
16dd#
16ee
16ff
16ff#
16gg
16gg#
16aa
16aa#
16bb
16ccc
=14
16ccc#
16ddd
16ddd#
16eee
16fff
16eee
16ddd#
16ddd
16ccc#
16ccc
16bb
16bb-
16aa
16gg#
16bb
16aa
=15
16bb-
16bb
16ccc
16ccc#
16dd
16dd#
16ee
16ff
16ee
16ff
16ff#
16gg
16gg#
16aa
16aa#
16bb
=16
16aa
16gg#
16gg
16ff#
16ff
16ee
16ee-
16dd
16ccc#
16ccc
16bb
16bb-
16aa
16gg#
16gg
16ff#
=17
16ff
16ee
16ee-
16dd
16cc#
16dd
16ff
16dd
16b
16cc
16ee
16cc
16a#
16b
16ee
16b
=18
16a
16a#
16b
16cc
16cc#
16dd
16dd#
16ee
16aa
16gg#
16gg
16ff#
16ff
16ee
16ee-
16dd
=19
16dd-
16cc
16b
16cc
16cc#
16dd
16dd#
16ee
16ff
16ff#
16gg
16gg#
16aa
16ee
16ff
16dd
=20
16dd-
16cc
16b
16cc
16cc#
16dd
16dd#
16ee
16ff
16ff#
16gg
16aa-
16gg
16ff#
16ff
16ee
=21
16ee-
16dd
16cc#
16dd
16ee-
16ee
16ff
16ff#
16gg
16gg#
16aa
16bb
16aa
16ff#
16gg
16ee-
=22
16dd
16ee
16cc#
16dd
16ee
16ee
16ff
16ff#
16gg
16gg#
16aa
16bb
16aa
16gg#
16gg
16ff#
=23
16ff
16ee
16dd#
16ee
16ff
16ff#
16gg
16gg#
16aa
16aa#
16bb
16ccc
16bb
16bb-
16aa
16gg#
=24
16gg
16ff#
16ff
16ee
16ff
16ff#
16gg
16gg#
16aa
16aa#
16bb
16ccc
16ccc#
16ddd
16ddd#
16eee
=25
16fff
16eee
16eee-
16ddd
16ccc#
16ccc
16bb
16bb-
16aa
16gg#
16gg
16ff#
16ff
16ee
16dd#
16ee
=26
16eee-
16ddd
16ccc#
16ccc
16bb
16bb-
16aa
16gg#
16gg
16ff#
16ff
16ee
16ee-
16dd
16cc#
16dd
=27
16ddd
16ccc#
16ccc
16bb
16bb-
16aa
16aa-
16gg
16ff#
16gg
16gg#
16aa
16bb-
16bb
16ccc
16bb
=28
16ddd
16ccc
16bb-
16aa
16aa-
16gg
16ff#
16ff
16ee
16ff
16ff#
16gg
16gg#
16aa
16bb-
16aa
=29
16ccc
16bb-
16aa
16aa-
16gg
16ff#
16ff
16ee
16ee-
16dd
16dd-
16cc
16b-
16a
16g#
16g
=30
16f#
16g
16g#
16a
16b-
16a
16g#
16g
16f#
16g
16g#
16a
16b-
16a
16g#
16g
=31
16f#
16g
16g#
16a
16cc
16b
16b-
16a
16g#
16a
16a#
16b
16cc
16b
16b-
16a
=32
8g#
8r
16eee
16fff
16ddd
16eee
16ccc
16ddd
16bb
16ccc
16aa
16bb
16gg
16aa
=33
16ff
16gg
16ee
16ff
16ddd
16eee
16ccc
16ddd
16bb
16ccc
16aa
16bb
16gg#
16aa
16ff
16gg
=34
16ee
16ff
16dd#
16ee
16ccc
16ddd
16bb
16ccc
16aa
16bb
16gg
16aa
16ff
16gg
16ee
16ff
=35
16dd
16ee
16cc
16dd
16b
16cc
16a
16b
16g#
16f
16d#
16e
16f
16f#
16g
16g#
=36
16a
16a#
16b
16cc
16cc#
16dd
16dd#
16ee
16ff
16ff#
16gg
16gg#
16aa
16aa#
16bb
16ccc
=37
16ccc#
16ddd
16ddd#
16eee
16fff
16eee
16ddd#
16ddd
16ccc#
16ccc
16bb
16bb-
16aa
16gg#
16bb
16aa
=38
16gg#
16gg
16ff#
16ff
16ee
16dd#
16ff
16ee
16dd#
16dd
16cc#
16cc
16b
16cc
16dd
16cc
=39
16b
16cc
16b
16cc
16b
16cc
16b
16cc
16b
16ee
16dd#
16dd
16cc#
16cc
16b
16b-
=40
16a
16a#
16b
16cc
16cc#
16dd
16dd#
16ee
16ff
16ff#
16gg
16gg#
16aa
16aa#
16bb
16ccc
=41
16ccc#
16ddd
16ddd#
16eee
16fff
16eee
16ddd#
16ddd
16ccc#
16ccc
16bb
16bb-
16aa
16gg#
16bb
16aa
=42
16bb-
16bb
16ccc
16ccc#
16dd
16dd#
16ee
16ff
16ee
16ff
16ff#
16gg
16gg#
16aa
16aa#
16bb
=43
16aa
16gg#
16gg
16ff#
16ff
16ee
16ee-
16dd
16ccc#
16ccc
16bb
16bb-
16aa
16gg#
16gg
16ff#
=44
16ff
16ee
16ee-
16dd
16cc#
16dd
16ff
16dd
16b
16cc
16ee
16cc
16a#
16b
16ee
16b
=45
16a
16a#
16b
16cc
16cc#
16dd
16dd#
16ee
16ff
16ff#
16gg
16gg#
16aa
16aa#
16bb
16ccc
=46
16aa
16aa#
16bb
16ccc
16ccc#
16ddd
16ddd#
16eee
16ff
16ff#
16gg
16gg#
16aa
16aa#
16bb
16ccc
=47
16aa
16gg#
16gg
16ff#
16ff
16ee
16ee-
16dd
16ccc#
16ccc
16bb
16bb-
16aa
16gg#
16gg
16ff#
=48
16ff
16ee
16ee-
16dd
16cc#
16cc
16b
16b-
16a
16g#
16g
16f#
16f
16e
16e-
16d
=49
1c#
==
*-
